X:1
T:One Day More
T:One Day More
%%score 1 2 3 4
L:1/8
Q:1/4=80
M:4/4
K:A
V:1 bass nm="Trombone" snm="Tbn."
V:2 bass nm="Trombone" snm="Tbn."
V:3 bass nm="Trombone" snm="Tbn."
V:4 bass nm="Trombone" snm="Tbn."
V:1
 (A,4 G,4) | (F,4 E,4) | (D,4 C,4) | B,,4 E,4 | (A,4 G,4) | (F,4 E,4) | (D,4 C,4) | B,,4 E,4 | E8 | %9
 E8 | D8 | D8 |[K:F] z2!f! E>F G>E C>B, | _A,4 z4 | z2 E>F G/E/ C2 B, | A, F3 z4 | %16
[K:Eb] z2 DE F>D B,>A, | _G,4 E,4 | z2 D>F B>B F>B | G2 z2 z4 | F,3 z G,3 G, | A,8 | A,8 | %23
 z3/2 _D/ D>D D>C D>E | F8 | z _DDD DDEF | _G4 AFEA | F3 F F>E F_G | A8- | A8- | A8- | A8 | %32
 z FFF F2- FE | E6[Q:1/4=60] _D2- | D8- | D8- |[M:2/4] D4- |[M:4/4] D8- | D8 |] %39
V:2
!mp! (A,/F,/E,/C,/) (A,/F,/E,/C,/) (A,/F,/E,/C,/) (A,/F,/E,/C,/) | %1
 (A,/F,/E,/C,/) (A,/F,/E,/C,/) (A,/F,/E,/C,/) (A,/F,/E,/C,/) | %2
 (A,/F,/E,/D,/) (A,/F,/E,/D,/) (A,/F,/E,/D,/) (A,/F,/E,/D,/) | %3
 (B,/F,/E,/D,/) (B,/F,/E,/D,/) (B,/F,/E,/D,/) (B,/F,/E,/D,/) | C8 | C8 | A,8 | F,4 D4 | C8 | C8 | %10
 A,8 | F,4 E,4 |[K:F] z2!f! C>C C>C G,>G, | F,4 z4 | z2 C>C C/C/ G,2 G, | F, A,3 z4 | %16
[K:Eb] z2 B,B, B,>B, F,>F, | E,4 _G,4 | z2 D>D F>D D>F | z2 z2 A,3 C | B,3 B, C3 C | _D8 | C8 | %23
 A,4 A,4 | [B,_D]>[CE] [DF]6 | B,4 B,4 | _G4 GFEG | F3 F F>E F_G | F8- | F8- | F8- | F8 | z8 | z8 | %34
 [F,A,]3 z [=E,=A,]4 | [^F,B,]3 z G,4 |[M:2/4] [=A,^C]3 z |[M:4/4] F,8- | F,8 |] %39
V:3
!pp! E,8 | A,8 | D,8 | B,,4 z2!mp! A,G, | E,2 z2 z/ E,/A,/G,/ G,/F,/F,/E,/ | F,/E,/ C,3 z4 | %6
 D,4 z2 z3/2 F,/ | C/B,/B,/A,/ A,/F,/F,/E,/ C/B,/B,/G,/ G,/E,/E, | z3/2 A,/ A,>A, A,>G, A,>B, | %9
 C8 | z2 (3A,A,A, A,A,B,C | F, A,3- A,2!mp! A,/B,/C/D/ |[K:F]!f! E,2 E,2 G,2 G,2 | %13
 z2!f! F>G _A>G F>A | G4 C2 C2 | A,,2 A,G, F,>G, A,>C |[K:Eb] [D,B,]2 [D,B,]2 [D,F,]2 [D,F,]2 | %17
 z2 EE E>E E<B, | D4 z4 | E E2 E2 E2 E | E E2 E2 E2 E | E8 | E8 | F4 F3 F | B,F- F2 _GFEF | %25
 _D4 D4 | B,C_DE F2 E2 | F/E/_D- D2 C4 | z2 _D>E F4- | F8- | F8- | F8 | z8 | z8 | A,3 z =A,4 | %35
 B,3 z _D4 |[M:2/4] ^C3 z |[M:4/4] A,8- | A,8 |] %39
V:4
!pp! C8 | C8 | A,8 | (D,4 E,4) | E,8 | z4!mp! z/ C,/F,/E,/ E,/D,/D,/C,/ | D,/C,/ A,,2 z z4 | %7
 D,4 B,4 | A,8 | A,8 | D8 | z4 z2!mp! A,/B,/C/D/ |[K:F]!f! C,4 E,4 | F,6 z ^G,/B,/ | C,4 E,4 | %15
 z2 F,F, F,>F, F,>F, |[K:Eb] F2 F2 B,2 B,2 | _G2- G>F E2 B,2 | B,2 B,2 D2 D2 | E, E,2 E,2 E,2 E, | %20
 E, E,2 E,2 E,2 E, | E,8 | E,8 | _D4 C4 | B,4 A,4 | _G,4 F,4 | E,4 A,4 | _D4 C4 | z2 [B,,B,]6- | %29
 [B,,B,]8 | [A,,A,]8- | [A,,A,]8 | z8 | z8 | _D,3 z =E,4 | _D,3 z =E,4 |[M:2/4] _D,3 z | %37
[M:4/4] _D,8- | D,8 |] %39

